X: 38881
T: Sunny Hills Of Beara, The
R: jig
M: 6/8
K: Gdorian
DCD FDF|GAG G2 F|GAc dcA|GAG GFD|
F2 G FDC|FGA cAF|GAc dcA|1 GAG G2 F:|2 GAG GAc||
d2 g gfd|fga fdc|dcd fga|gag g2 a|
gfd f2 g|dcA c2 d|AGF AcA|1 GAG GAc:|2 GAG G2 F||

